X: 9
T: Buckland Downs
%R: jig
B: "Twenty Four Country Dances for the Year 1780", Thomas Skillern, ed. p.5 #1
F: http://www.vwml.org/browse/browse-collections-dance-tune-books/browse-skillerns1780#
Z: 2014 John Chambers <jc:trillian.mit.edu>
M: 6/8
L: 1/8
K: Bb
|:\
[B3D3] {d}cBc | [B3D3] F2F | G2c {B}AGA | B2f {e}dcd |\
[B3D3] {d}cBc | [B3D3] F2F | Gz c {B}AGA | B3- B3 :|
|:\
B2B Bba | a2g gfe | d2c ceg | g2f fed |\
cBB Bdf | fee dcB | Acd ecA | B3 B,3 :|
%%begintext align
%%   The First Cu. turn with the Right
%% hand then with the Left Cast off,
%% Allmand with the Right hand Allmand
%% with the Left, hands Six Round.
%%endtext

%%sep 1 1 500
%%sep 1 1 500
